usr/share/icons/biglinux-icons-material/24/actions/object-rotate-right.svg

<svg xmlns="http://www.w3.org/2000/svg" viewBox="0 0 24 24">
  <defs id="defs3051">
    <style type="text/css" id="current-color-scheme">
      .ColorScheme-Text {
        color:#363636;
      }
      </style>
  </defs>
 <path style="fill:currentColor;fill-opacity:1;stroke:none" 
     d="M 10.599609 4 L 9.8925781 4.7070312 L 12.185547 7 L 9.9003906 7 L 9 7 L 9 8 L 9.9003906 8 L 12.185547 8 L 9.8925781 10.292969 L 10.599609 11 L 13.892578 7.7070312 L 14.099609 7.5 L 13.892578 7.2929688 L 10.599609 4 z M 7.5 7 C 7.223 7 7 7.223 7 7.5 C 7 7.777 7.223 8 7.5 8 C 7.777 8 8 7.777 8 7.5 C 8 7.223 7.777 7 7.5 7 z M 4.5 9 C 4.223 9 4 9.223 4 9.5 C 4 9.777 4.223 10 4.5 10 C 4.777 10 5 9.777 5 9.5 C 5 9.223 4.777 9 4.5 9 z M 16.050781 9 L 10 15.050781 L 14.949219 20 L 21 13.949219 L 16.050781 9 z M 16.050781 10.414062 L 19.585938 13.949219 L 14.808594 18.726562 L 11.273438 15.191406 L 16.050781 10.414062 z M 3.5 12 C 3.223 12 3 12.223 3 12.5 C 3 12.777 3.223 13 3.5 13 C 3.777 13 4 12.777 4 12.5 C 4 12.223 3.777 12 3.5 12 z M 4.5 15 C 4.223 15 4 15.223 4 15.5 C 4 15.777 4.223 16 4.5 16 C 4.777 16 5 15.777 5 15.5 C 5 15.223 4.777 15 4.5 15 z M 7.5 17 C 7.223 17 7 17.223 7 17.5 C 7 17.777 7.223 18 7.5 18 C 7.777 18 8 17.777 8 17.5 C 8 17.223 7.777 17 7.5 17 z "
     class="ColorScheme-Text"
     />
</svg>

<svg xmlns="http://www.w3.org/2000/svg" viewBox="0 0 24 24"><path d="m10.6 4-.707.707L12.186 7H9v1h3.186l-2.293 2.293.707.707 3.293-3.293.207-.207-.207-.207L10.6 4zM7.5 7a.499.499 0 1 0 0 1 .499.499 0 1 0 0-1zm-3 2a.499.499 0 1 0 0 1 .499.499 0 1 0 0-1zm11.55 0L10 15.05 14.95 20 21 13.95 16.05 9zm0 1.414 3.536 3.535-4.777 4.778-3.536-3.536 4.778-4.777zM3.5 12a.499.499 0 1 0 0 1 .499.499 0 1 0 0-1zm1 3a.499.499 0 1 0 0 1 .499.499 0 1 0 0-1zm3 2a.499.499 0 1 0 0 1 .499.499 0 1 0 0-1z" style="fill:currentColor;fill-opacity:1;stroke:none;color:#dedede"/></svg>
